X:1
T:Caber Feigh
T:Cabar Feidh
T:Caper Fey
B:Kerr's Merry Melodies Bk.1 (c1870s)
Z:Nigel Gatherer
M:4/4
L:1/8
K:C
G | c2 ed c2 GB | c2 GF ECCA | defe d2 A^c | d2 AG FDDB |
    c2 ed c2 GB | c2 GF ECCE | DEFG ABcA   | d2 AG FDD ||
f | ecgc  acgc  | ecgc  ecce | fdad bdad   | fgag  fddf |
    ecgc  acgc  | GAcd  eccg | afge fde^c  | d2 AG FDD |]
